X:1
T:Poi che piu
T:Poi che piu
T:Giovanni Ghizzolo
C:Giovanni Ghizzolo
%%score [ 1 2 ] { 3 | 4 }
L:1/8
Q:1/4=120
M:4/4
K:F
V:1 treble nm="Soprano" snm="S"
V:2 bass nm="Bass" snm="B"
V:3 treble nm="MusicXML Part"
V:4 bass 
V:1
"^Source: Madrigali et Arie---Libro terzo---Venetia---A.Raverij---1609.\nEditor André Vierendeels (27/12/09)\nContunuo: André Vierendeels""^PRIMA PARTE" z4 G4-"^CANZONETTA" | %1
w: Poi|
w: |
 G2 GG G3 A | A4 A2 d2 | d>c c4 B2 | c4 c4 | z ccc c3 F | G4 G4 | BA Bc d4 | BA cB A4 | G8 |: %10
w: _ che piu volt' in|va- no pre-|go Flo- rind' Ar-|mil- la|co'l fert'- ig- nud' in|ma- no|sopr' _ un _ on-|da _ tran- * quil-|la.|
w: |||||||||
 c6 =B/4B/4B/4B/4A/B/ | c4 d2 cB | A2 AA A2 c2 | c2 =B2 G4 | B2 d2- d4- | d>^F G/A/B/c/ A4 | G8 :| %17
w: Dis- * * * * * *|se sia- te pre-|sen- ti voi so- li'al|mo- rir mio|fi- da _|_ t'ar- * * * * men-|ti.|
w: |||||||
 d2 dd d2 G2 | A4 A4 | z _eee e3 f | d4 c4 | A2 Bc d3 B | c3 =B c4 | z2 d4 FF | F3 F E4 | D8 |: %26
w: Ec- co che pur vi|las- so|e las- cio ques- ti|col- li|Quel- la ch'a'il cor di|sas- so _|For- s'ha- vra|gl'oc- chi mol-|li.|
w: E- co che pur vi|las- so|e las- cio ques- ti|||||||
 z4 F2 FF | FF F4 F2 | z2 c4 BB | B>A c4 cA | BG AB A4 | G8 :|"^TERZA PARTE" z AAA c3 F | G4 G4 | %34
w: se vi ri-|fer- ma'in- sie- me|All' an- go-|scio- se mie que- *|rel- * l'es- * tre-|me.|Splen- de'a frai Mont' al-|lo- ra|
w: ||||||||
 z GGA B3 c | A4 A2 d2- | d2 cA BG AB | c4 c2 A2 | BA Bc d4- | d2 A2 A4 |: G4 z2 A2 | A2 B2 B2 A2 | %42
w: un chris- tal- li- no|ge- lo, che|_ la nas- cent'- _ Au- *|ro- ra ves-|tia _ di _ perl'|_ in Cie-|1.lo/2.ri ed|ei con dol- ci|
w: ||||||||
 B4 B4 | z2 dd d2 cB | A2 B2 ^FGAB |1 GABc A4 :|2 GABc A4 || G8 |] %48
w: spir- ti|fa- cea pian- ger d'a-|mor le quer- * * *|ci'ei- * * * mir-|ci'ei _ _ _ mi-|ri.|
w: ||||||
V:2
 G,6 C,C, | C,4 =B,,4 | D,4 D,2 B,,2 | C,2 D,2 _E,2 D,2 | F,4 F,F,F,F, | F,4 A,,4 | C,4 C,4 | %7
w: Poi che piu|volt' in|va- no pre-|go Flo- rind' Ar-|mil- la co'l fert'- ig-|nud' in|ma- no|
w: |||||||
 G,,2 A,,2 B,,2 A,,G,, | D,8 | G,,8 |: F,8 | F,,4 B,2 A,G, | F,2 F,F, F,2 E,2 | D,2 D,2 C,2 E,2 | %14
w: sopr' un on- da tran-|quil-|la.|Dis-|se sia te pre-|sen- ti voi so- li'al|mo- rir mio fi-|
w: |||||||
 G,A,B,G, D2 =B,,2 | D,8 | G,,8 :| G,2 G,G, _E,3 E, | D,4 D,4 | z C,C,C, C,3 C, | G,4 C,4 | %21
w: * * * * da t'ar-|men-|ti.-|||* * * * ti|col- li|
w: |||||||
 F,2 G,A, B,2 D,2 | F,4 F,4 | B,,2 B,,B,, B,,3 B,, | A,,8 | D,8 |: z4 F,2 F,F, | F,F, F,4 F,2 | %28
w: Quel- la ch'a'il cor di|sas- so|For- s'ha- vra gl'oc- chi|mol-|li|se vi ri-|fer- ma'in- sie- me|
w: |||||||
 A,,4 B,,2 C,2 | D,2 E,2 F,2 F,,2 | B,,2 C,2 D,4 | G,,8 :| z F,F,F, F,2 E,2 | C,4 C,4 | %34
w: All' an- go|scio- se mie que-|rel- l'es- tre-|me.|Splen- de'a frai Mont' al-|lo- ra|
w: ||||||
 z C,C,A,, G,,2 G,,2 | D,4 D,2 B,,2 | B,2 A,2 G,2 G,2 | F,4 F,2 F,,2 | G,,2 A,,2 B,,2 C,2 | D,8 |: %40
w: un chris- tal- li- no-||||||
w: |ge- lo, che|la nas- cent' Au-|ro- ra ves-|tia di perl' in|Cie-|
 G,,4 z2 F,2 | F,2 D,2 _E,2 F,2 | B,,4 B,,2 B,B, | B,2 A,G, ^F,2 G,2 | D,8- |1 D,2 C,2 D,4 :|2 %46
w: 1.lo/2.ri ed|ei con dol- ci|spir- ti fa- cea|pian- ger d'a- mor le|quer-|* ci'ei mir-|
w: ||||||
 D,2 C,2 D,4 || G,,8 |] %48
w: * ci'ei mir-|ri.|
w: ||
V:3
 [DGB]6 [EG]2 | [EG]4 [DG]4 | [^FA]6 [DG]2 | [_EG]2 [DG]2 [CG]2 [DG]2 | [F-Ac-]8 | [FAc]8 | %6
 [EGc]8 | [DG]2 [CE]2 [DG]2 [DA]2 | [GB]2 [FA]2 [DG]2 [D^F]2 | [DG=B]8 |: [F-Ac-]8 | %11
 [FAc]4 [DFB]4 | [FAc]6 [EG]2 | [Gd]4 [EGc]4 | [DGB]4 [FA]2 [DG]2 | [DA]6 [D^F]2 | [DG=B]8 :| %17
 [DGB]4 [Gc]4 | [^FAd]8 | [Gc]8 | [DB]4 [EG]4 | [FAc]4 [DFB]4 | [FAc]8 | [DFB]8 | [DFA]4 [^CE]4 | %25
 [^FAd]8 |: [F-Ac-]8 | [FAc]8 | [EA]4 [DFB]2 [EG]2 | [DG]2 [CG]2 [FA]4 | [FB]2 [EG]2 ^F/G/A/B/ cd | %31
 [DG=B]8 :| [FAc]6 [DF]2 | [EGc]8 | [EGc]2 [Ac]2 [DB]4 | [FA]6 [FB]2- | [FB]2 [Ac]2 [DB]4 | %37
 [FAc]8 | [DGB]8 | dcBA [DG]2 [D^F]2 |: [DG=B]4 [F-Ac-]4 | [FAc]2 [DFB]2 [Gc]2 [FAc]2 | [D-FB-]8 | %43
 [DA]2 [^FA]4 [DGB]2 | %44
 [^FAd]8"^Notes: Original keys: Ut 1st, Fa 4rth.\n           Basso Continuo not in the original print" |1 %45
 [DG]2 [Ec]2 [DG]2 [D^F]2 :|2 [GB]2 [EG]2 G^FGA || [DG=B]8 |] %48
V:4
 G,6 C,2 | C,4 =B,,4 | D,4 D,2 B,,2 | C,2 D,2 _E,2 D,2 | F,4 F,4 | F,4 A,,4 | C,4 C,4 | %7
 G,,2 A,,2 B,,2 A,,G,, | D,8 | G,,8 |: F,8 | F,,4 B,2"^SECONDA PARTE" A,G, | F,4 F,2 E,2 | %13
 D,2 D,2 C,2 E,2 | G,A,B,G, D,2 =B,,2 | D,8 | G,,8 :| G,4 _E,4 | D,4 D,4 | C,4 C,4 | G,4 C,4 | %21
 F,4 B,,2 D,2 | F,4 F,4 | B,,4 B,,4 | A,,8 | D,8 |: F,8 | F,8 | A,,4 B,,2 C,2 | D,2 E,2 F,2 F,,2 | %30
 B,,2 C,2 D,4 | G,,8 :| F,4 F,2 D,2 | C,4 C,4 | C,2 A,,2 G,,4 | D,4 D,2 B,,2 | B,2 A,2 G,4 | %37
 F,4 F,,4 | G,,2 A,,2 B,,2 C,2 | [D,A,]4 [D,,D,]4 |: G,,4 F,4 | F,2 D,2 _E,2 F,2 | B,,4 B,,4 | %43
 B,2 A,2 ^F,2 G,2 | D,8 |1 D,2 C,2 D,4 :|2 D,2 C,2 D,4 || G,,8 |] %48

